X:212
T: Shepherd's Hornpipe (The)
N: O'Farrell's Pocket Companion v.3 (Sky ed. p.106)
D: O'Sullivan Meets O'Farrell track 1
N: "Irish"
M: C
L: 1/8
Q: 320
R: hornpipe
K: G
B>A| G3A GABc| dBge dBAG| cBce dBAG| E2 A2 A3B|
cBcd efge| dBAG GFED| GBAc BdAc| B2 G2 G2 :|
zB| dBGB d2 gf| edcB cBAG| cBcd efge| f2 d2 d3B|
cBcd efge|  dBAG GFED| GBAc BdAc| B2 G2 G2 :|
